!!!OTL: Zhi shoujin
!!!ARE: Asia, China, Shanxi Hancheng
!! I, 72
!!!SCT: C1406
!!!YEM: Copyright 1995, estate of Helmut Schaffrath.
**kern
*ICvox
*Ivox
*M2/4
*k[]
*C:
{16dd
16ee
16dd
16cc
16dd
16a
[8dd
=1
8dd]
16ee
16dd
16cc
16a
8dd
=2
16g
8g
16a
8dd
8dd
=3
16cc
16a
16cc
16a
4f}
=4
{8.g
16a
8dd
16cc
16dd
=5
8ff
16a
16g
8f
16f
16g
=6
16cc
16a
16cc
16a
16a
16g
16f
16g
=7
4d
8d
8r}
=8
{16ff
16a
16a
16g
16f
16d
[8d
=9
8d]
8g
8a
8dd
=10
16ee
16dd
16cc
16a
16a
16g
16f
16g
=11
8a
8g
4d}
=12
{8.g
16a
8dd
16cc
16dd
=13
8ff
16a
16g
8.f
16g
=14
16cc
16a
16cc
16a
16a
16g
16f
16g
=15
4d
8d
8r}
==
!!!AGN: Wuge, Yangge diao
!!!ONB: ESAC (Essen Associative Code) Database: HUANG
!!!AMT: simple duple
!!!AIN: vox
!!!EED: Helmut Schaffrath
!!!EEV: 1.0
*-
!!!ONB: Tied note syntax fixed by Craig Sapp, 2004/05/03/
